X:1
T:Silent night
T:Silent night
T:M. Davel
T:M. Davel
Z:M. Davel
%%score 1 { 2 | ( 3 4 ) }
L:1/8
Q:1/4=80
M:3/4
K:C
V:1 treble nm="Flute" snm="Fl."
V:2 treble nm="Piano" snm="Pno."
V:3 bass 
V:4 bass 
V:1
!p!"^Adagiobpm" (G3 A G2) | E6 | (G3 A) G2 | E6 |!mp! d4 d2 | B6 | c4 c2 | G6 | A4 A2 | c3 B A2 | %10
w: Si- il ent|night|Ho- l- y|night.|All is|calm,|all is|bright.|Round yon|vir- gin and|
 (G3 A) G2 | E6 | A4 A2 | (c3 B) A2 | (G3 A) G2 | E6 |!f! d4!<(! d2!<)! | (f3 d) B2 | (c6 | e6) | %20
w: Mo- ther and|child.|Ho- ly|in- fant so|ten- der and|mild.|Sleep in|hea- ven- ly|peace.||
"^mf" c'2 g2 e2 |!>(! (g3 f) d2!>)! |!pp! c6- | c6 |] %24
w: Sle ep in|hea- ven- ly|peace.||
V:2
!p! E2 CF E2 | C4 D2 | E2 CF E2 | C2 D2 E2 |!mp! F2 G2 A2 | D2 E2 F2 | F2 E2 D2 | E2 D2 C2 | %8
 F2 C2 F2 | A2 CG F2 | E2 CF E2 | C2 D2 E2 | F2 C2 F2 | A2 CG F2 | E2 CF E2 | C2 D2 E2 | %16
!f! F2 A2 F2 | DE FG AG | CF E2 D2 | C2 E2 G2 |"^mf" EF E2 C2 |!>(! E2 D2 D2!>)! |!pp! C6- | C6 |] %24
V:3
!p! z G, CG, CG, | z G, CE G,E, | z G, CG, CG, | z G, CE [G,C]2 |!mp! z G, B,F D,G, | %5
 z G, B,2 G,2 | z G, CE E,C | z2 z2 [G,C]2 | z A, CF CA, | z A, CF [A,C]2 | z G, CE CG, | %11
 z G, CE [G,C]2 | z A, CF CA, | z A, CF [A,C]2 | z G, CG, CG, | z G, CE [G,C]2 | %16
!f! z D, G,B, G,D, | z D, G,B, G,D, | z G, CE CG, | z E, G,E, C,2 |"^mf" z G, CE CG, | %21
!>(! z D, G,B, [F,G,]2!>)! |!pp! z G, CE CG, | [C,G,CE]6 |] %24
V:4
"C" C,6 | C,6 | C,6 | C,6 |"G7" G,,4 D,2 | F,6 |"C" C,6 | E,G, C,4 |"F" F,,6 | F,,6 |"C" C,6 | %11
 C,6 |"F" F,,6 | F,,6 |"C" C,6 | C,6 |"G" G,,6 | B,,6 | E,6 | C,6 | C,6 | G,,6 | C,6 | x6 |] %24

